src/status/24/notification-disabled-10-symbolic.svg

<?xml version="1.0" encoding="UTF-8" standalone="no"?>
<svg
   xmlns:dc="http://purl.org/dc/elements/1.1/"
   xmlns:cc="http://creativecommons.org/ns#"
   xmlns:rdf="http://www.w3.org/1999/02/22-rdf-syntax-ns#"
   xmlns:svg="http://www.w3.org/2000/svg"
   xmlns="http://www.w3.org/2000/svg"
   height="24"
   width="24"
   version="1.1"
   id="svg6">
  <metadata
     id="metadata12">
    <rdf:RDF>
      <cc:Work
         rdf:about="">
        <dc:format>image/svg+xml</dc:format>
        <dc:type
           rdf:resource="http://purl.org/dc/dcmitype/StillImage" />
        <dc:title />
      </cc:Work>
    </rdf:RDF>
  </metadata>
  <defs
     id="defs10" />
  <path
     style="color:#bebebe;overflow:visible;opacity:1;isolation:auto;mix-blend-mode:normal;vector-effect:none;fill:#363636;fill-opacity:1;stroke-width:1;stroke-linecap:butt;stroke-linejoin:miter;stroke-miterlimit:4;stroke-dasharray:none;stroke-dashoffset:0;stroke-opacity:1;marker:none"
     d="M 6.3535156 4.7363281 L 5.4121094 5.6777344 L 6.7617188 7.0273438 L 7.703125 6.0859375 L 6.3535156 4.7363281 z M 12 5 A 1 1 0 0 0 11 6 L 11 6.0097656 C 9.236 6.4657656 8.002 8.178 8 10 C 8 10 7.9998438 15.000094 6.3398438 15.621094 C 6.3238437 15.632094 6.3177812 15.652062 6.3007812 15.664062 A 0.726 0.726 0 0 0 6.1386719 15.839844 C 6.1206719 15.866844 6.0999375 15.888016 6.0859375 15.916016 A 0.738 0.738 0 0 0 6 16.25 C 6 16.363636 6.335 17 6.75 17 L 17.25 17 C 17.363636 17 18 16.363636 18 16.25 A 0.738 0.738 0 0 0 17.914062 15.916016 C 17.900062 15.888016 17.878328 15.865844 17.861328 15.839844 A 0.725 0.725 0 0 0 17.699219 15.664062 C 17.683219 15.652062 17.677156 15.632094 17.660156 15.621094 C 16.000156 15.001094 16 10 16 10 C 15.998 8.177 14.765 6.4647656 13 6.0097656 L 13 6 A 1 1 0 0 0 12 5 z M 10.066406 18 A 2 2 0 0 0 12 19.5 A 2 2 0 0 0 13.935547 18 L 10.066406 18 z "
     id="path2" />
</svg>

<svg xmlns="http://www.w3.org/2000/svg" width="24" height="24">
    <path d="m6.354 4.736-.942.942 1.35 1.35.941-.942-1.35-1.35zM12 5a1 1 0 0 0-1 1v.01C9.236 6.466 8.002 8.178 8 10c0 0 0 5-1.66 5.621-.016.011-.022.031-.04.043a.726.726 0 0 0-.161.176c-.018.027-.04.048-.053.076A.738.738 0 0 0 6 16.25c0 .114.335.75.75.75h10.5c.114 0 .75-.636.75-.75a.738.738 0 0 0-.086-.334c-.014-.028-.036-.05-.053-.076a.725.725 0 0 0-.162-.176c-.016-.012-.022-.032-.039-.043C16 15.001 16 10 16 10c-.002-1.823-1.235-3.535-3-3.99V6a1 1 0 0 0-1-1zm-1.934 13A2 2 0 0 0 12 19.5a2 2 0 0 0 1.936-1.5h-3.87z" style="color:#bebebe;overflow:visible;opacity:1;isolation:auto;mix-blend-mode:normal;vector-effect:none;fill:#050505;fill-opacity:.7;stroke-width:1;stroke-linecap:butt;stroke-linejoin:miter;stroke-miterlimit:4;stroke-dasharray:none;stroke-dashoffset:0;stroke-opacity:1;marker:none"/>
</svg>
